Obsidian/actions/22s/format-connect-node.svg

<svg height="22" viewBox="0 0 22 22" width="22" xmlns="http://www.w3.org/2000/svg"><path d="m1 .98046875v5.00000005h5v-2h4v2h5v-5.00000005h-5v2.00000005h-4v-2.00000005zm5 6.00000005 2 3 2-3zm-5 3v5.0000002h5v-2h1v-1h-1v-2.0000002zm9 0v2.0000002h-1v1h1v2h5v-5.0000002z" fill="#bebebe" transform="translate(3 3)"/></svg>

<svg xmlns="http://www.w3.org/2000/svg" width="22" height="22" viewBox="0 0 22 22">
 <defs>
  <style id="current-color-scheme" type="text/css">
   .ColorScheme-Text { color:#bebebe; } .ColorScheme-Highlight { color:#4285f4; }
  </style>
 </defs>
 <path style="fill:currentColor" class="ColorScheme-Text" d="M 1 0.98046875 L 1 5.9804688 L 6 5.9804688 L 6 3.9804688 L 10 3.9804688 L 10 5.9804688 L 15 5.9804688 L 15 0.98046875 L 10 0.98046875 L 10 2.9804688 L 6 2.9804688 L 6 0.98046875 L 1 0.98046875 z M 6 6.9804688 L 8 9.9804688 L 10 6.9804688 L 6 6.9804688 z M 1 9.9804688 L 1 14.980469 L 6 14.980469 L 6 12.980469 L 7 12.980469 L 7 11.980469 L 6 11.980469 L 6 9.9804688 L 1 9.9804688 z M 10 9.9804688 L 10 11.980469 L 9 11.980469 L 9 12.980469 L 10 12.980469 L 10 14.980469 L 15 14.980469 L 15 9.9804688 L 10 9.9804688 z" transform="translate(3 3)"/>
</svg>
